X:161
T:All Hail The Power Of Jesus' Name
%%stretchlast false
M:4/4
L:1/4
K:Eb clef=C1
"^v"[B,B] "^I"[EGe] [EGBe] [EBeg] | [EBeg] "^V"[B,Bdf] "^vi"[CGce] "^V"[B,Bdf] | "^I¹"[G,Beg] "^V7"[B,Adf] "^vi"[CGe] "^I²"[B,Beg] | "^V7"[B,Adf] "^I"[E,Ge]3 | "^v"[B,FBf] "^I"[EGeg] "^v"[B,FBf] "^I¹"[G,EGe] | "^I"[EGeg] "^iii"[GBgb]/ "^♯iii"[FAfa]/ "^I"[EGeg]/ "^vii"[DFdf]/ "^I"[EGeg] | "^V"[B,Fdb] "^I"[EGeb]2 "^V¹"[DFfb]2 | "^vi"[CGec']2 "^V²"[F,Fdb] | "^V/V"[F,Fc=a] "^V"[B,Fdb]3 | "^I"[EBg] [EGBb] [E,EBg] "^I¹"[G,EBe] | "^I"[E,Beg] "^V7"[B,Adf]/ "^vi7³"[B,Gce]/ "^V7"[B,Adf]/ "^I²"[B,Beg]/ "^V7"[B,Adf] | "^vi"[CGe] "^I¹"[G,Eeb]2 "^i¹"[A,Eea]2 | "^I²"[B,Eeg]3/2 "^i"[B,Fea]/ "^V"[B,Def]/ "^i"[B,Fef]/ | "^V7"[B,Adf] "^I"[E,Ge]3 |]
